assets/Passport control/Flat/passport_control_flat.svg

<svg width="32" height="32" viewBox="0 0 32 32" fill="none" xmlns="http://www.w3.org/2000/svg">
<path d="M2 6C2 3.79086 3.79086 2 6 2H26C28.2091 2 30 3.79086 30 6V26C30 28.2091 28.2091 30 26 30H6C3.79086 30 2 28.2091 2 26V6Z" fill="#00A6ED"/>
<path d="M16.7997 5.9469C16.4303 5.9469 16.1884 6.33372 16.3502 6.66585L17 7.99998H15.5C15.2239 7.99998 15 8.22384 15 8.49998C15 8.77612 15.2239 8.99998 15.5 8.99998H23.5C23.7761 8.99998 24 8.77612 24 8.49998V6.4469C24 6.17076 23.7761 5.9469 23.5 5.9469H16.7997Z" fill="white"/>
<path d="M17.5 9.99998C17.2239 9.99998 17 10.2238 17 10.5V11C17 11.3939 17.0905 11.7841 17.2664 12.148C17.4423 12.512 17.7001 12.8427 18.0251 13.1213C18.3501 13.3999 18.736 13.6209 19.1606 13.7716C19.5852 13.9224 20.0404 14 20.5 14C20.9596 14 21.4148 13.9224 21.8394 13.7716C22.264 13.6209 22.6499 13.3999 22.9749 13.1213C23.2999 12.8427 23.5577 12.512 23.7336 12.148C23.9095 11.7841 24 11.3939 24 11V10.5C24 10.2238 23.7761 9.99998 23.5 9.99998H17.5Z" fill="white"/>
<path d="M11.5 8C11.7761 8 12 8.22386 12 8.5V13.5C12 13.7761 11.7761 14 11.5 14H10V14.866C10 15.2509 9.58333 15.4915 9.25 15.299L7.5538 14.3197C7.53619 14.3121 7.51872 14.3034 7.50145 14.2936L7.25305 14.1517C7.09718 14.0627 7.00098 13.897 7.00098 13.7175V13.1239L7 13.1211V8.5C7 8.22386 7.22386 8 7.5 8H11.5ZM10 12.875C10 12.944 10.056 13 10.125 13H10.875C10.944 13 11 12.944 11 12.875V9.125C11 9.05596 10.944 9 10.875 9H9.30178C9.19041 9 9.13464 9.13464 9.21339 9.21339L9.85355 9.85355C9.94732 9.94732 10 10.0745 10 10.2071V12.875Z" fill="white"/>
<path d="M23.7483 15C24.2019 15 24.4211 15.5556 24.0897 15.8653L16.5138 22.9451C16.4572 22.998 16.3827 23.0274 16.3053 23.0274C16.1367 23.0274 16 22.8907 16 22.7221V19.0948L13.5108 21.5707C13.2297 21.8503 12.8494 22.0073 12.4529 22.0073H8.47827C7.64984 22.0073 6.97827 21.3357 6.97827 20.5073C6.97827 19.6788 7.64984 19.0073 8.47827 19.0073H11.834L15.4233 15.437C15.715 15.1468 16.0962 15.0014 16.4776 15.0005C16.485 15.0002 16.4925 15 16.5 15L23.7483 15Z" fill="white"/>
<path d="M16 25.3167C16 25.1803 16.0558 25.0498 16.1544 24.9554L24.1544 17.3033C24.4724 16.999 25 17.2245 25 17.6646V25.5C25 25.7762 24.7761 26 24.5 26H16.5C16.2239 26 16 25.7762 16 25.5V25.3167Z" fill="white"/>
</svg>

<svg xmlns="http://www.w3.org/2000/svg" width="32" height="32" fill="none"><path fill="#00A6ED" d="M2 6a4 4 0 0 1 4-4h20a4 4 0 0 1 4 4v20a4 4 0 0 1-4 4H6a4 4 0 0 1-4-4V6Z"/><path fill="#fff" d="M16.8 5.947a.5.5 0 0 0-.45.719L17 8h-1.5a.5.5 0 0 0 0 1h8a.5.5 0 0 0 .5-.5V6.447a.5.5 0 0 0-.5-.5h-6.7ZM17.5 10a.5.5 0 0 0-.5.5v.5c0 .394.09.784.266 1.148.176.364.434.695.76.973.324.279.71.5 1.135.65.424.151.88.229 1.339.229.46 0 .915-.078 1.34-.228.424-.151.81-.372 1.135-.65.325-.28.583-.61.759-.974.175-.364.266-.754.266-1.148v-.5a.5.5 0 0 0-.5-.5h-6ZM11.5 8a.5.5 0 0 1 .5.5v5a.5.5 0 0 1-.5.5H10v.866a.5.5 0 0 1-.75.433l-1.696-.98a.538.538 0 0 1-.053-.025l-.248-.142a.5.5 0 0 1-.252-.434v-.594L7 13.12V8.5a.5.5 0 0 1 .5-.5h4ZM10 12.875c0 .069.056.125.125.125h.75a.125.125 0 0 0 .125-.125v-3.75A.125.125 0 0 0 10.875 9H9.302a.125.125 0 0 0-.089.213l.64.64a.5.5 0 0 1 .147.354v2.668ZM23.748 15a.5.5 0 0 1 .342.865l-7.576 7.08a.305.305 0 0 1-.514-.223v-3.627l-2.49 2.476a1.5 1.5 0 0 1-1.057.436H8.478a1.5 1.5 0 0 1 0-3h3.356l3.59-3.57A1.495 1.495 0 0 1 16.5 15h7.248ZM16 25.317a.5.5 0 0 1 .154-.362l8-7.652a.5.5 0 0 1 .846.362V25.5a.5.5 0 0 1-.5.5h-8a.5.5 0 0 1-.5-.5v-.183Z"/></svg>
